X:1
T:Querflöte Sonate G-Dur, HWV 363b
T:für Querflöte und bezifferten Baß (Op. I, Nr. 5) Transcribed for Rec, Bsn, Hch in B-Dur from IMSLP#303320 PDF File
T:Querflöte Sonate G-Dur, HWV 363b
T: George Frideric Handel (1685 — 1759)
T:Public Domain
T:Public Domain
T:Public Domain
T:Public Domain
T:Public Domain
T:Public Domain
T:Public Domain
C:George Frideric Handel (1685 — 1759)
Z:Hallische Händel-Ausgabe, Serie IV: Instrumentalmusik (Klavier-, Kammer- und Orchestermusik),
Z:Public Domain
%%score [ 1 ( 2 3 ) ] { ( 4 5 8 9 ) | ( 6 7 ) }
L:1/8
Q:1/4=50
M:4/4
K:Bb
V:1 treble nm="Alto Recorder" snm="A. Rec."
V:2 bass nm="Fagotto" snm="Bsn."
V:3 bass 
V:4 treble nm="Harpsichord" snm="Hch."
V:5 treble 
V:8 treble 
V:9 treble 
V:6 bass 
V:7 bass 
V:1
"^1. Adagio" b4- bc'/d'/ fe/>d/ | d/c/B z f dc z f | dc z b gf z b | gfBe- ed (ga/b/4c'/4) | %4
 fe/d/ dc/B/ B3 b | af z b/4c'/4d'/ ag/f/ c'2- | c'/f/g/a/ bb ba- a/g/a/b/ | c/b/a/g/ ag/f/ f4- | %8
 f4 z d'ab | ^fg de/d/ d3 b | e'3 f d'3 e | c'3 d bac'b | e'd'gc'- c'/d'/b/a/ ba/g/ | %13
 gb/g/ e2 z a/f/ d2- | d3 g c3 d | d8 |][M:4/4]"^2. Allegro"[Q:1/4=100] z f/f/ ff dBBg | %17
 fBBb affd' | c'f z/ b/a/b/ g/b/a/b/ f/b/a/b/ | e/b/a/b/ d/b/a/b/ cb c'b/a/ | %20
 b2 z2 z f/e/ d/e/f/g/ | a/b/a/g/ f/g/a/b/ c'/d'/c'/b/ a/b/c'/d'/ | b/a/b/c'/ a/f/g/a/ b z a z | %23
 d' z c'f ba ba/g/ | a/f/g/a/ b/c'/d'/b/ ga/b/ c'/a/b/c'/ | fg/a/ b/g/a/b/ e/f/d/e/ c/d/e/f/ | %26
 dB gg gf z f | be z e c'abe | d2 c>B B2 z g | fBBe dB z g | fBBe dB z g | fBBb af z d' | %32
 c'ffb af z/ c'/b/c'/ | d'/c'/b/a/ b/a/g/f/ =eceg | c'/b/a/g/ a/g/f/=e/ dBdf | %35
 b/a/g/f/ g/f/=e/d/ c z z2 | z c/c/ cc AFFd | cFFf =ecca | gc z/ f/=e/f/ d/f/e/f/ c/f/e/f/ | %39
 B/f/=e/f/ A/f/e/f/ Gf gf/e/ | f2 z2 z f/f/ ff | dB z2 z b/b/ bb | ge z c' af z d' | %43
 be'/d'/ c'/b/a/g/ ^fd d'2- | d'8- | d'8- | d'g c'2- c'd'ba | b2 a>g g/b/a/b/ g/b/a/b/ | %48
 c2 z =e f/a/g/a/ f/a/g/a/ | B2 z d gb/a/ g/f/=e/d/ | ^ca/a/ aa fddb | addd' b/c'/b/a/ g/f/=e/d/ | %52
 ag/f/ =e>d df/e/ f2- | fd'/c'/ =b/a/g/f/ ec/d/ e2- | ec'/b/ a/g/f/e/ d/c/B/c/ d/e/f/g/ | %55
 e/d/c/d/ e/f/g/a/ f/e/d/e/ f/g/a/b/ | g/f/e/f/ g/a/b/c'/ af'/f'/ f'f' | %57
 b2 z2 z c'/d'/ e'/c'/d'/e'/ | a2 z2 z b/c'/ d'/c'/b/a/ | gg/a/ b/a/g/f/ e/f/g/f/ e/d/c/B/ | %60
 Af/f/ ff dBBb | f2 z b affd' | c'f z/ b/a/b/ g/b/a/b/ f/b/a/b/ | %63
 e/b/a/b/ d/b/a/b/ c/b/a/b/ a/g/a- | a/b/c'/d'/ g/f/g- g/a/b/c'/ f/g/a/b/ | %65
 e/f/g/a/ b/c'/d'/e'/ af b2- | bc'/d'/ a>b bb/a/ g/f/e/d/ | g/f/e/d/ e/d/c/B/ afbe | %68
 d>cc>B B2 z2 |][M:3/4]"^3. Adagio" z6 | z6 | z6 | z6 | d6- | d4 g2 | ^f4 d'2 | c'2 b3 a | %77
 b2 g2 z2 | z2 d2 e2 | f6- | f4 b2 | a4 b2 | c2 d2 e2 | d6 | d2 f2 =e2 | f4 z2 | ^f4 z2 | g4 z2 | %88
 a4 z2 | b4 a2 | d4 =e2 | ^c3 =B A2 | z2 d'2 c'2 | b4 a2 | z2 g^f g2 | g3 a f2- | f=e e3 d | d6 | %98
 d6 | z6 | z2 a2 ab/c'/ | b2 d2 e2 | f4 g2 | e3 d c2 | z2 a2 d2 | b3 a g2- | ga ^f3 g | c6- | %108
 c2 d2 A2 | B4 d2 | g2 c3 d | d6 |][M:4/4]"C4. Bourée"[Q:1/4=160] f2 | f2 d2 edcB | g2 b4 ag | %115
 f2 ed cdec | d2 B4 c2 | d=efd efge | fgaf gabg | ab c'2 c2 =e2 | f6 :: c'2 | c'2 a2 (bagf) | %123
 b2 d'4 g2 | ^f2 g2 a2 bc' | b2 g4 f2 | f2 ed e2 e2 | e2 dc d2 f2 | gabg abc'a | bc'd'b c'd'e'c' | %130
 d'2 c'b abc'a | bc'd'b c'2 e2 | d2 cB ABcA | BcdB cdec | de f2 d2 cB | B6 :| z/8 | %137
[M:3/4]"^5. Menuetto"[Q:1/4=140] b2 Tf3 e/f/ | c'2 Tf3 e/f/ | d'2 c'd' e'2 | d'2 c'd' b2 | %141
 ab Tb3 a/b/ | c'2 bagf | g2 c2 =e2 | f6 :: f2{/f} b4 | g2 fedc | g2{/g} c'4 | a2 gfed | %149
 a2{/a} d'4 | b2 ag^fg | a2 d2 ^f2 | g6 | f2 defg | f2 d'2 =b2 | f2 gfed | e2 e'2 d'2 | c'2 bagf | %158
 b2 agfe | d2 edcd | B6 :| %161
V:2
 B,CDE FEFF, | B,B,A,F, z FDA, | B,F,D,B,, z B,G,D, | E,F,G,A, B,B,,E,E | DB,FF, B,CDE | %5
 FA,B,B,, F,G,A,F, | D2 z =E FF, B,2 | A,B,CC, F,B,A,B, | F,FCD A,B,^F,G, | D,E,B,,C, D,B,A,G, | %10
 C,CFA, B,DEG, | A,C^F,^F G=FED | CB, E2 DG,DD, | G,2 z C F,2 z B, | E,8 | D,8 |][M:4/4] z8 | z8 | %18
 z8 | z8 | z B,/B,/ B,B, A,F,F,D | CF,F,F =ECCA | GC z/ F/=E/F/ D/F/E/F/ C/F/E/F/ | %23
 B,/F/=E/F/ A,/F/E/F/ G,F GF/E/ | FF, z F F_E z E | ED z D CB,A,F, | %26
 B,C/D/ E/C/D/E/ A,B,/C/ D/B,/C/D/ | G,A,/B,/ C/A,/B,/C/ F,FGE | FEFF, B,,/B,/A,/B,/ E,/B,/A,/B,/ | %29
 D,/B,/A,/B,/ C,/B,/A,/B,/ B,,/B,/A,/B,/ E,/B,/A,/B,/ | %30
 D,/B,/A,/B,/ C,/B,/A,/B,/ B,,/B,/A,/B,/ E,/B,/A,/B,/ | %31
 D,/B,/A,/B,/ G,/=E/D/E/ F,/F/E/F/ B,/F/E/F/ | A,/F/=E/F/ G,/F/E/F/ F,/F/E/F/ A,F | %33
 B,CDB, CG/F/ =E/D/C/B,/ | A,CFA, B,F/=E/ D/C/B,/A,/ | G,A,B,G, =E,C/C/ CC | %36
 A,F, z2 z F,/=E,/ D,/E,/F,/G,/ | A,/B,/A,/G,/ F,/G,/A,/B,/ C/D/C/B,/ A,/B,/C/D/ | %38
 =E/C/D/E/ FA, B, z A, z | D z C z [B,D][A,C][B,D][CG] | F,F/F/ FF DB, z2 | z B,/B,/ B,B, G,E, z2 | %42
 z E/D/ C/D/E/C/ FF/E/ D/E/F/D/ | EC z2 z D/C/ B,/A,/G,/A,/ | %44
 ^F,/D,/=E,/F,/ G,/A,/B,/C/ D/G/^F/G/ C/G/F/G/ | B,/G/^F/G/ A,/G/F/G/ G,/D/C/D/ =F,/D/C/D/ | %46
 E,2 z E ^F,D,G,C | DCDD, G,2 z G | =E/G/F/G/ C/G/F/G/ A,2 z F | D/F/=E/F/ B,/D/C/D/ =E,2 z G, | %50
 A,2 z2 z D/D/ DD | ^CF/F/ FF G,2 z G | ^CDA,A,, D,2 z D/=C/ | =B,G,A,B, C2 z C/_B,/ | %54
 A,F,G,A, B,B,, z B, | CC, z C DD, z D | EE, z C F2 z2 | z G/G/ GG C2 z2 | z D/E/ F/D/E/F/ B,2 z2 | %59
 z E/F/ G/F/E/D/ C/D/E/D/ C/B,/A,/G,/ | F,/B,/A,/G,/ F,/E,/D,/C,/ B,,B,/B,/ B,B, | %61
 A,F,F,D CF, z/ F/E/F/ | F,/E/D/E/ F,/D/C/D/ E,EDB, | GG,F,F ECFE | DB,ED CA,DB, | G,E, z E FDGE | %66
 FEFF, B,2 z B, | E,F,G,E, F,D,G,E, | F,E,F,F,, B,,2 z2 |][M:3/4][K:treble] G,2 B2 A2 | G2 F2 E2 | %71
 D2 C2 B,2 | C2 D2 D2 | G,2 B2 A2 | G2 F2 E2 | D2 C2 B,2 | C2 D2 D,2 | G,2 B2 A2 | G2 F2 E2 | %79
[K:bass] B,2 D2 C2 | B,2 A,2 G,2 | F,2 E,2 D,2 | E,2 F,2 F,,2 | B,,2 D2 C2 | B,2 A,2 G,2 | %85
 F,2 F2 _E2 | D2 D2 C2 | B,2 A,2 G,2 | ^F,2 =E,2 D,2 | G,2 =E2 =F2 | B,2 A,2 G,2 | A,2 A,2 G,2 | %92
 F,2 F2 =E2 | D2 D,2 C,2 | B,,2 B,2 G,2 | ^C2 A,2 D2 | G,2 A,2 A,,2 | D,2[K:treble] B2 A2 | %98
[K:bass] G2 F2 E2 | D2 C2 B,2 | C2 D2 D,2 | G,2 F,2 E,2 | D,2 =B,2 G,2 | C2 A,2 G,2 | F,4 F2 | %105
 G2 D2 E2 | C2 D2 D,2 | z2 E2 C2 | ^F,4 F,2 | G,2 G2 F2 | E2 E,4 | D,6 |][M:4/4] B,2 | %113
 A,2 B,2 F,2 G,2 | E,2 E2 D2 E2 | A,2 B,2 E,2 F,2 | B,,6 F,2 | B,2 A,2 G,2 C2 | A,2 F2 =E2 C2 | %119
 F2 A,2 C2 C,2 | F,2 F=E F2 :: F,2 | F2 C2 F2 E2 | D2 B,C D2 E2 | D2 G,2 C2 D2 | G,6 D2 | %126
 G,2 =B,2 C2 C,2 | F,2 A,2 B,2 D,2 | E,2 C,2 F,2 E,2 | D,2 B,2 A,2 F,2 | B,2 D2 F2 F,2 | %131
 G,2 B,2 A,2 C2 | B,2 D2 F2 E2 | D2 B,2 A,2 F,2 | B,2 D,2 F,2 F,,2 | B,,6 :| z/8 | %137
[M:3/4] B,2 D2 B,2 | F2 A,2 F,2 | B,2 A,2 F,2 | B,2 A,2 G,2 | F,2 D,2 B,,2 | F,2 G,2 A,2 | %143
 B,2 C2 C,2 | F,2 F_EDC :: B,2 D2 B,2 | E6 | C2 E2 C2 | F6 | D2 ^F2 D2 | G2 D2 E2 | C2 D2 D,2 | %152
 G,2 B,2 G,2 | D4 C2 | =B,4 G,2 | D2 =B,2 G,2 | C4 D2 | E6 | D2 D,2 E,2 | F,2 E,2 F,2 | B,,6 :| %161
V:3
 x8 | x8 | x8 | x8 | x8 | x8 | x8 | x8 | x8 | x8 | x8 | x8 | x8 | x8 | x8 | x8 |][M:4/4] x8 | x8 | %18
 x8 | x8 | x8 | x8 | x8 | x8 | x8 | x8 | x8 | x8 | F2 F2 x4 | x8 | x8 | x8 | x8 | x8 | x8 | x8 | %36
 x8 | x8 | x8 | x8 | x8 | x8 | x8 | x8 | x8 | x8 | x8 | x8 | x8 | x8 | x8 | x8 | x8 | x8 | x8 | %55
 x8 | x8 | x8 | x8 | x8 | x8 | x8 | x8 | x8 | x8 | x8 | x8 | x8 | x8 |][M:3/4][K:treble] x6 | x6 | %71
 x6 | x6 | x6 | x6 | x6 | x6 | x6 | x6 |[K:bass] x6 | x6 | x6 | x6 | x6 | x6 | x6 | x6 | x6 | x6 | %89
 x6 | x6 | x6 | x6 | x6 | x6 | x6 | x6 | x2[K:treble] x4 |[K:bass] x6 | x6 | x6 | x6 | x6 | x6 | %104
 x6 | x6 | x6 | x6 | x6 | x6 | x6 | x6 |][M:4/4] x2 | x8 | x8 | x8 | x8 | x8 | x8 | x8 | x6 :: x2 | %122
 x8 | x8 | x8 | x8 | x8 | x8 | x8 | x8 | x8 | x8 | x4 F2 x2 | x8 | x8 | x6 :| |[M:3/4] x6 | x6 | %139
 x6 | x6 | x6 | x6 | x6 | x6 :: x6 | x6 | x6 | x6 | x6 | x6 | x6 | x6 | x6 | x6 | x6 | x6 | x6 | %158
 x6 | x6 | x6 :| %161
V:4
 df/4e/4d/4e/4fg [cf]c c2 | [Bd]Fc[cf] z [Ac]Bc | [Bd][Ac][Bf]d z d[dg]f | gf-fe edec | %4
 [Bf][Bd][Bd][Ac] de/d/4e/4fg | ff [Bd]2 ABcc | f2 z B BA AG | cgf[=eg] f3 b/a/ | %8
 a>g [fa]/g/f fddB | Ac/B/ dc/B/ Ad[cd][Bd] | [Be]2 cf df fe/g/ | ^f2 [da]d ddc[Bd] | %12
 [Ae][dg] g2 [c^f][dg]B[Ad] | [Bd]2 z e e2 z d | [Bd]2 [Gc]B (ce [cg]2) | [Ad^f]8 |][M:4/4] z8 | %17
 z8 | z8 | z8 | z FB[Bd] cAAB | [Ae]3 c [cg]=eef | =e2 z f f2 f2 | f2 f2 fd =ec | %24
 [cf]2 z d g2 z g | f2 z B [Ae][Bd]c[Ac] | [Bd]2 B2 cd/e/ fd | e2 e2 e2 de | [Bd]2 [Ac]2 B2 B2 | %29
 [Bf]2 [Be]c [Bd]2 [Be]2 | fdec [Bd]2 [Be]2 | [Bf]2 =ec [cf]2 [df]2 | f2 fg a2 f2 | defd =e2 c2 | %34
 [cf]=e[cf]c d2 Bc | BcdB c=e[eg][ce] | [cf]c z2 z A F/G/A/B/ | %37
 c/d/c/B/ A/B/c/d/ =e/f/e/d/ c/d/e/f/ | g/=e/f/g/ af d z d z | B z A z [F-G][Fc][GB][GB] | %40
 Ac[cf]c [Bf][Bd] z2 | z FB[Bd] [Be][GB] z2 | z Bec ccfd | Be z2 z [^FA]GB | %44
 A/^F/G/A/ B/c/d/_e/ d>d eg | g2 gg g>B dA | d2 cg [da]2 [dg][ea] | [dg]2 [d^f]2 [dg]2 z g | %48
 g2 =e2 =f2 z f | fb d2 [^cg]2 z [B=e] | [A^c]2 z2 z [FA][Ad]f | =eAdf f2 z e | =ed d^c d2 z d | %53
 d=Bcd [ce]2 z [Gc] | cA_Bc [Bd]2 z d | e2 z e f2 z f | g2 z g [fa]2 z2 | z Bd[dg] [eg]2 z2 | %58
 z [Acf][fa][cf] d2 z2 | z BB=B c2 cB | f2 c2 dF [DFB]2 | cAAB e2 z d | f2 f2 gffd | e2 d2 cecf | %64
 fd [eg]2 [eg]ff[df] | e[eg] z g f2 eg | f2 [fa]2 [fb]2 z B | [eg]>[fb] e[cg] f2 e[ce] | %68
 [Bd]2 [Ac]2 [FB]2 z2 |][M:3/4] [DG]2 g2 [^fa]2 | [gb]2 d2 g2 | ^f4 g2 | g3 a ^f2 | g2 g2 [^fa]2 | %74
 [gb]2 d2 g2 | ^f4 g2 | g4 ^f2 | g2 g2 [^fa]2 | [gb]2 d2 c2 | [Bd]2 [Bf]2 [Ac]2 | %80
 [Bd]2 (cd [Be]2) | [cf]4 f2 | c2 [Bd]2 [Ac]2 | [Bd]2 B2 [Ac]2 | [Bd]2 c2 [B=e]2 | %85
 [cf]2 c2- [cf]2 | ^f3 =e f2 | g2 [^fa]2 [gb]2 | a3 g ^f2 | g4 [c=f]2 | d4 =e2 | [A^c]4 [ce]2 | %92
 [da]4 [=ea]2 | [fb]4 [_ea]2 | [dg]4 [=eg]2 | [=eg]4 [df]2 | [df]2 [^c=e]4 | [Ad]2 g2 [^fa]2 | %98
 [gb]2 d2 [cg]2 | [d^f]4 [dg]2 | [eg]2 ^f4 | g2 d2 c2 | c2 [Gd]2 [=Bd]2 | c4 [Gc]2 | [Ac]4 d2 | %105
 d2 f2 [eg]2 | [eg]2 ^f4 | z2 c2 c2 | [Ac]4 [Ac]2 | B2 B2 d2 | d2 c4 | d6 |][M:4/4] d2 | %113
 c2 [Bd]2 [Ac]2 [GB]2 | [GB]2 B2 [Bf]2 [Be]2 | c2 [Bd]2 c2 [Ac]2 | [Bd]2 [df][ce] [Bd]2 [Ac]2 | %117
 d2 [cf]2 [B=e]4 | [cf]2 c4 =e2 | [cf]4 [c=e]4 | [cf]6 :: f2 | [fa]4 f2 f2 | f2 de f2 g2 | %124
 ^f2 g4 [df]2 | [dg]2 d2 [dg]2 =f2- | f2 d2 c4 | [Ac]2 c2 B2 B2 | [Be]4 [FAc]2 [cf]2 | f4 f2 a2 | %130
 b2 f2 c2 e2 | e2 d2 c2 [Ac]2 | [Bd]4 [Ac]2 [Ac]2 | B2- [Bd]2 e4 | [Bd]4 [Bd]2 [Ac]2 | [FB]6 :| %136
 z/8 |[M:3/4] [Bd]4 [Bd]2 | [Ac]4 [Ac]2 | [Bd]2 [cf]4 | f4 [eb]2 | [fa]2 [fb]2 d2 | c2 B2 c2 | %143
 d2 G2 [Gc]2 | A6 :: d2 f2 d2 | B6 | e2 g2 e2 | c6 | ^f2 d2 f2 | d4 G2 | [Ae]2 [Bd]2 ^f2 | g6 | %153
 =f4 f2 | f4 d2 | =B2 [Gd]2 [GB]2 | [Gc]4 _B2 | c2 e2 [Ac]2 | f4 B2 | d2 c2 [Ac]2 | B6 :| %161
V:5
 B4 B2 A2 | FDFA x AFF | FFFF x BBB | B[Ac]B[Fc] [FB]2 [GB][FA] | FF[I:staff +1]F[I:staff -1]F B4 | %5
 Ac F2 F3 A | [Ac]2 x [cg] x2 dd | c[Bd][Ac]c [Ac]d/c/c[cf] | [cf]2 c/B/A/B/ cFAD | %9
 ^FG GE/G/ FGFG | G2 Ac [FB]BGB | [ce]BAA BAGF | AB c2 ABG^F | G2 x [GB] [FA]2 x [FA] | G2 D2 G4 | %15
 x8 |][M:4/4] x8 | x8 | x8 | x8 | x D[DF]F F3 F | E2 x A [Gc]2 x c | B2 x A B2 [Ac]2 | %23
 [Bd]2 c2 B2 B2 | A2 x A [Bd]c x c | [Ac]B x F EFFF | F2 G2 G2 [FB]2 | [GB]2 [GA]2 A2 B[GB] | %28
 x4 [DF]2 G2 | F2 GF F2 G2 | [FB]2 [GB][Fc] F2 G2 | F2 [GB]2 A2 B2 | cA B2 c2 cA | %33
 B3 B G[I:staff +1]G[I:staff -1] G2 | FGAF B2 BF | G3 G G3 G | F[FA] x3 F F2 | F2 A2 G2 c2 | %38
 c2 x6 | F x F x5 | FAAA FF x2 | x DFF E2 x2 | x GGG AABB | GG x3 DDD | D2 B2 B>B ce | %45
 d2 cc B3/2G x3/2 | G3 c c2 B[ce] | B2 A2 B2 x [Bd] | c2 c2 c2 x [Ac] | [Bf]2 BA G2 x G | %50
 =E2 x3 FFd | AAAA B2 x B | A[FA] [=EA]2 [FA]2 x [FA] | G3 G G2 x E | [EF]2 x F F2 x G | %55
 G2 x A A2 x B | B2 x e c2 x2 | x BBB c2 x2 | x AcA B2 x2 | x gef e2 e=e | A2 A2 BD D2 | %61
 F3 F A2 x B | [Ac]2 [Bd]2 [Be]c B2 | B2 B2 [GB]2 Ac | B2 B2 [ce]2 B2 | BB x [Gc] [Ac]BBc | %66
 d2 c2 d2 x d | B2 BG [Ac]BBG | F2 FE D2 x2 |][M:3/4] [B,D]2 d2 c2 | d2 [Ad]2 [Gc]2 | [Ad]4 [Gd]2 | %72
 A4 A2 | [Bd]2 d2 c2 | d2 [Ad]2 [Gc]2 | [Ad^f]4 [Gd]2 | [Ae]2 [Bd]2 [Ad]2 | [Bd]2 d2 c2 | %78
 d2 [Ad]2 G2 | F4 E2 | F4 G2 | [Ac]4 B2 | [GB]2 F4 | F2 F2 E2 | F4 G2 | A2 c2 x2 | [Ad]4 [Ad]2 | %87
 [Gd]2 c2 d2 | d2 A2 c2 | B4 A2 | B2 [FB]2 [GB]2 | =E4 A2 | A4 c2 | B4 c2 | d4 B2 | A4 A2 | %96
 (B2 G4) | F2 d2 c2 | d2 A2 G2 | A4 B2 | A2 A4 | B2 A2 G2 | F4 F2 | E4 E2 | E4 A2 | B4 B2 | A2 A4 | %107
 x2 G2 [EG]2 | D4 D2 | G2 B2 A2 | G6 | [^FA]6 |][M:4/4] F2 | F4 E2 D2 | E2 G2 F2 G2 | F4 [GB]2 F2 | %116
 F2 F4 F2 | F4 G4 | F2 A2 x2 B2 | A2 F2 G4 | x6 :: [Ac]2 | c4 c2 [Ac]2 | B2 B4 B2 | A2 B2 A2 A2 | %125
 B2 c2 B2 [Ac]2 | [G=B]2 [FG]2 [EG]4 | [EA]2 [EF]2 [DF]2 F2 | G4 F2 A2 | B2 [Bd]2 [ce]2 [ce]2 | %130
 [Bd]2 B2 A2 A2 | B4 F2 E2 | F4 x2 F2 | F4 F4 | F4 F2 E2 | D6 :| x/4 |[M:3/4] F4 F2 | x2 F2 F2 | %139
 F4 A2 | [Bd]2 c2 B2 | c2 B2 B2 | A2 F4 | F2 F2 =E2 | F2 F_EDC :: [FB]2 [FB]4 | G6 | [Gc]2 [Gc]4 | %148
 A6 | A2 [Ad]4 | B2 [^FA]2 B2 | G4 [Ad]2 | [Bd]6 | [Ac]4 [Ad]2 | [Gd]4 [G=B]2 | F4 F2 | [EG]4 F2 | %157
 [Gc]4 [FA]2 | [FB]4 [GB]2 | F2 G2 E2 | [DF]6 :| %161
V:6
 B,CDE FEFF, | B,B,A,F, z FDA, | B,F,D,B,, z B,G,D, | E,F,G,A, B,B,,E,E | DB,FF, B,CDE | %5
 FA,B,B,, F,G,A,F, | D2 z =E FF, B,2 | A,B,CC, F,B,A,B, | F,FCD A,B,^F,G, | D,E,B,,C, D,B,A,G, | %10
 C,CFA, B,DEG, | A,C^F,^F G=FED | CB, E2 DG,DD, | G,2 z C F,2 z B, | E,8 | D,8 |][M:4/4] z8 | z8 | %18
 z8 | z8 | z B,/B,/ B,B, A,F,F,D | CF,F,F =ECCA | GC z/ F/=E/F/ D/F/E/F/ C/F/E/F/ | %23
 B,/F/=E/F/ A,/F/E/F/ G,F GF/E/ | FF, z F F_E z E | ED z D CB,A,F, | %26
 B,C/D/ E/C/D/E/ A,B,/C/ D/B,/C/D/ | G,A,/B,/ C/A,/B,/C/ F,FGE | FEFF, B,,/B,/A,/B,/ E,/B,/A,/B,/ | %29
 D,/B,/A,/B,/ C,/B,/A,/B,/ B,,/B,/A,/B,/ E,/B,/A,/B,/ | %30
 D,/B,/A,/B,/ C,/B,/A,/B,/ B,,/B,/A,/B,/ E,/B,/A,/B,/ | %31
 D,/B,/A,/B,/ G,/=E/D/E/ F,/F/E/F/ B,/F/E/F/ | A,/F/=E/F/ G,/F/E/F/ F,/F/E/F/ A,F | %33
 B,CDB, CG/F/ =E/D/C/B,/ | A,CFA, B,F/=E/ D/C/B,/A,/ | G,A,B,G, =E,C/C/ CC | %36
 A,F, z2 z F,/=E,/ D,/E,/F,/G,/ | A,/B,/A,/G,/ F,/G,/A,/B,/ C/D/C/B,/ A,/B,/C/D/ | %38
 =E/C/D/E/ FA, B, z A, z | D z C z [B,D][A,C][B,D][I:staff -1][CG] |[I:staff +1] F,F/F/ FF DB, z2 | %41
 z B,/B,/ B,B, G,E, z2 | z E/D/ C/D/E/C/ FF/E/ D/E/F/D/ | EC z2 z D/C/ B,/A,/G,/A,/ | %44
 ^F,/D,/=E,/F,/ G,/A,/B,/C/ D/G/^F/G/ C/G/F/G/ | B,/G/^F/G/ A,/G/F/G/ G,/D/C/D/ =F,/D/C/D/ | %46
 E,2 z E ^F,D,G,C | DCDD, G,2 z G | =E/G/F/G/ C/G/F/G/ A,2 z F | D/F/=E/F/ B,/D/C/D/ =E,2 z G, | %50
 A,2 z2 z D/D/ DD | ^CF/F/ FF G,2 z G | ^CDA,A,, D,2 z D/=C/ | =B,G,A,B, C2 z C/_B,/ | %54
 A,F,G,A, B,B,, z B, | CC, z C DD, z D | EE, z C F2 z2 | z G/G/ GG C2 z2 | z D/E/ F/D/E/F/ B,2 z2 | %59
 z E/F/ G/F/E/D/ C/D/E/D/ C/B,/A,/G,/ | F,/B,/A,/G,/ F,/E,/D,/C,/ B,,B,/B,/ B,B, | %61
 A,F,F,D CF, z/ F/E/F/ | F,/E/D/E/ F,/D/C/D/ E,EDB, | GG,F,F ECFE | DB,ED CA,DB, | G,E, z E FDGE | %66
 FEFF, B,2 z B, | E,F,G,E, F,D,G,E, | F,E,F,F,, B,,2 z2 |][M:3/4][K:treble] G,2 B2 A2 | G2 F2 E2 | %71
 D2 C2 B,2 | C2 D2 D2 | G,2 B2 A2 | G2 F2 E2 | D2 C2 B,2 | C2 D2 D,2 | G,2 B2 A2 | G2 F2 E2 | %79
[K:bass] B,2 D2 C2 | B,2 A,2 G,2 | F,2 E,2 D,2 | E,2 F,2 F,,2 | B,,2 D2 C2 | B,2 A,2 G,2 | %85
 F,2 F2 _E2 | D2 D2 C2 | B,2 A,2 G,2 | ^F,2 =E,2 D,2 | G,2 =E2 =F2 | B,2 A,2 G,2 | A,2 A,2 G,2 | %92
 F,2 F2 =E2 | D2 D,2 C,2 | B,,2 B,2 G,2 | ^C2 A,2 D2 | G,2 A,2 A,,2 | D,2[K:treble] B2 A2 | %98
[K:bass] G2 F2 E2 | D2 C2 B,2 | C2 D2 D,2 | G,2 F,2 E,2 | D,2 =B,2 G,2 | C2 A,2 G,2 | F,4 F2 | %105
 G2 D2 E2 | C2 D2 D,2 | z2 E2 C2 | ^F,4 F,2 | G,2 G2 F2 | E2 E,4 | D,6 |][M:4/4] B,2 | %113
 A,2 B,2 F,2 G,2 | E,2 E2 D2 E2 | A,2 B,2 E,2 F,2 | B,,6 F,2 | B,2 A,2 G,2 C2 | A,2 F2 =E2 C2 | %119
 F2 A,2 C2 C,2 | F,2 F=E F2 :: F,2 | F2 C2 F2 E2 | D2 B,C D2 E2 | D2 G,2 C2 D2 | G,6 D2 | %126
 G,2 =B,2 C2 C,2 | F,2 A,2 B,2 D,2 | E,2 C,2 F,2 E,2 | D,2 B,2 A,2 F,2 | B,2 D2 F2 F,2 | %131
 G,2 B,2 A,2 C2 | B,2 D2 F2 E2 | D2 B,2 A,2 F,2 | B,2 D,2 F,2 F,,2 | B,,6 :| z/8 | %137
[M:3/4] B,2 D2 B,2 | F2 A,2 F,2 | B,2 A,2 F,2 | B,2 A,2 G,2 | F,2 D,2 B,,2 | F,2 G,2 A,2 | %143
 B,2 C2 C,2 | F,2 F_EDC :: B,2 D2 B,2 | E6 | C2 E2 C2 | F6 | D2 ^F2 D2 | G2 D2 E2 | C2 D2 D,2 | %152
 G,2 B,2 G,2 | D4 C2 | =B,4 G,2 | D2 =B,2 G,2 | C4 D2 | E6 | D2 D,2 E,2 | F,2 E,2 F,2 | B,,6 :| %161
V:7
 x8 | x8 | x8 | x8 | x8 | x8 | x8 | x8 | x8 | x8 | x8 | x8 | x8 | x8 | x8 | x8 |][M:4/4] x8 | x8 | %18
 x8 | x8 | x8 | x8 | x8 | x8 | x8 | x8 | x8 | x8 | F2 F2 x4 | x8 | x8 | x8 | x8 | x8 | x8 | x8 | %36
 x8 | x8 | x8 | x8 | x8 | x8 | x8 | x8 | x8 | x8 | x8 | x8 | x8 | x8 | x8 | x8 | x8 | x8 | x8 | %55
 x8 | x8 | x8 | x8 | x8 | x8 | x8 | x8 | x8 | x8 | x8 | x8 | x8 | x8 |][M:3/4][K:treble] x6 | x6 | %71
 x6 | x6 | x6 | x6 | x6 | x6 | x6 | x6 |[K:bass] x6 | x6 | x6 | x6 | x6 | x6 | x6 | x6 | x6 | x6 | %89
 x6 | x6 | x6 | x6 | x6 | x6 | x6 | x6 | x2[K:treble] x4 |[K:bass] x6 | x6 | x6 | x6 | x6 | x6 | %104
 x6 | x6 | x6 | x6 | x6 | x6 | x6 | x6 |][M:4/4] x2 | x8 | x8 | x8 | x8 | x8 | x8 | x8 | x6 :: x2 | %122
 x8 | x8 | x8 | x8 | x8 | x8 | x8 | x8 | x8 | x8 | x4 F2 x2 | x8 | x8 | x6 :| x/4 |[M:3/4] x6 | %138
 x6 | x6 | x6 | x6 | x6 | x6 | x6 :: x6 | x6 | x6 | x6 | x6 | x6 | x6 | x6 | x6 | x6 | x6 | x6 | %157
 x6 | x6 | x6 | x6 :| %161
V:8
 x8 | x8 | x8 | x8 | x8 | x8 | x8 | x8 | x8 | x8 | x8 | x8 | x8 | x8 | x8 | x8 |][M:4/4] x8 | x8 | %18
 x8 | x8 | x8 | x8 | x8 | x8 | x8 | x8 | x8 | x8 | x8 | x8 | x8 | x8 | x8 | x8 | x8 | x8 | x8 | %37
 x8 | x8 | x8 | x8 | x8 | x8 | x8 | x8 | x6 AF | x8 | x8 | x8 | x8 | x8 | x8 | x8 | x8 | x8 | x8 | %56
 x8 | x8 | x8 | x8 | x8 | x8 | x8 | x8 | x8 | x8 | x8 | x8 | x8 |][M:3/4] x6 | x6 | x6 | e2 d2 x2 | %73
 x6 | x6 | x6 | x6 | x6 | x6 | x6 | x6 | x6 | x6 | x6 | x6 | x6 | x6 | x6 | x6 | d2 c2 x2 | x6 | %91
 x6 | x6 | x6 | x6 | x6 | x6 | x6 | x6 | x6 | x2 d2 c2 | x6 | x6 | G2 F2 x2 | x6 | x6 | x2 d2 c2 | %107
 x6 | x6 | x6 | x6 | x6 |][M:4/4] x2 | x8 | x8 | x8 | x8 | x8 | x8 | x8 | x6 :: x2 | x8 | x8 | %124
 d4 e2 x2 | x8 | x8 | x8 | x8 | x8 | x8 | x8 | x8 | x4 c2 A2 | x8 | x6 :| x/4 |[M:3/4] x6 | x6 | %139
 x6 | x6 | x6 | x6 | x6 | x6 :: x6 | x6 | x6 | x6 | x6 | x6 | x6 | x6 | x6 | x6 | x6 | x6 | x6 | %158
 x6 | B4 x2 | x6 :| %161
V:9
 x8 | x8 | x8 | x8 | x8 | x8 | x8 | x8 | x8 | x8 | x8 | x8 | x8 | x8 | x8 | x8 |][M:4/4] x8 | x8 | %18
 x8 | x8 | x8 | x8 | x8 | x8 | x8 | x8 | x8 | x8 | x8 | x8 | x8 | x8 | x8 | x8 | x8 | x8 | x8 | %37
 x8 | x8 | x8 | x8 | x8 | x8 | x8 | x8 | x8 | x8 | x8 | x8 | x8 | x8 | x8 | x8 | x8 | x8 | x8 | %56
 x8 | x8 | x8 | x8 | x8 | x8 | x8 | x8 | x8 | x8 | x8 | x8 | x8 |][M:3/4] x6 | x6 | x6 | x4 d2 | %73
 x6 | x6 | x6 | x6 | x6 | x6 | x6 | x6 | x6 | x6 | x6 | x6 | x6 | x6 | x6 | x6 | x6 | x6 | x6 | %92
 x6 | x6 | x6 | x6 | x6 | x6 | x6 | x6 | x6 | x6 | x6 | x6 | x6 | x6 | x6 | x6 | x6 | x6 | x6 | %111
 x6 |][M:4/4] x2 | x8 | x8 | x8 | x8 | x8 | x8 | x8 | x6 :: x2 | x8 | x8 | x8 | x8 | x8 | x8 | x8 | %129
 x8 | x8 | x8 | x8 | x8 | x8 | x6 :| x/4 |[M:3/4] x6 | x6 | x6 | x6 | x6 | x6 | x6 | x6 :: x6 | %146
 x6 | x6 | x6 | x6 | x6 | x6 | x6 | x6 | x6 | x6 | x6 | x6 | x6 | x6 | x6 :| %161

